!!!!SEGMENT: pl-sa--549-a-ix-29--021_isouard-nicolas--ariette.krn
!!!cenid: 18xx:475
!!!COM: Isouard, Nicolas
!!!COM-rismID: pe30001597
!!!CDT: 1773/05/16-1818/03/23
!!!CNT: French
!!!OTL: Ariette
!!!PDT:
!!!AGN: Secular
!!!SMS-siglum: PL-SA
!!!SMS-shelfmark: 549/A IX 29
!!!SMS-shelfwork: 021 W
!!!SMS-variant:
!!!SMS-altvar:
!!!NIFC-rismSourceID: 1001068858
!!!NIFC-islandoraID:
!!!URL-pdf-islandora:
!!!URL-scan: https://bc.bdsandomierz.pl/dlibra/publication/1441/edition/1409/content @EN{Scan in the Sandomierz Diocese Digital Library} @PL{Skany w portalu Cyfrowa Biblioteka Diecezjalna w Sandomierzu}
!!!ONB-nifc: Str. 15 (s. 4) – str. 16 (s. 1)
!!!AIN: 1 piano
!!!key: G
**kern	**fing	**kern	**fing	**dynam
*part1	*	*part1	*	*part1
*staff2	*	*staff1	*	*
*Ipiano	*	*Ipiano	*	*
*I"Piano	*	*	*	*
*I'P-no	*	*	*	*
*ICklavier	*	*ICklavier	*	*
*clefF3	*	*clefG2	*	*
*k[f#]	*	*k[f#]	*	*
*G:	*	*G:	*	*
*M9/8	*	*M9/8	*	*
=1	=1	=1	=1	=1
!LO:CL:ed	!	!	!	!
*clefF4	*	*	*	*
2ryy	.	2ryy	.	.
4ryy	.	4ryy	.	.
!	!	!LO:TX:b:i:t=odbita	!	!
4r	.	8dd\L	1	.
.	.	8ee\	2	.
8r	.	8ff#\J	3	.
=2	=2	=2	=2	=2
8G\L	5	4.gg\	.	.
8B\	3	.	.	.
8d\J	1	.	.	.
8F#\L	5	4.aa\	.	.
8c\	.	.	.	.
8d\J	.	.	.	.
8G\L	.	8bb\L	.	.
8B\	.	8gg\	.	.
8d\J	.	8ddd\J	.	.
=3	=3	=3	=3	=3
8C\L	.	[4.eee\	.	.
8E\	.	.	.	.
8G\J	.	.	.	.
8C\L	.	8eee\L]	.	.
8E\	.	8eee\	.	.
!	!	!LO:TX:a:t=P:problem=8fff# lub 8ddd	!	!
8A\J	.	8ccc\J 8fff#	.	.
8D\L	.	8ccc\L	.	.
8F#\	.	8bb\	.	.
8c\J	.	8aa\J	.	.
=4	=4	=4	=4	=4
8G\L	4	8bb\L	.	.
8B\	.	8aa\	.	.
8d\J	.	8gg\J	.	.
*rep	*	*rep	*	*
.	.	.	.	.
.	.	.	.	.
.	5	.	.	.
8G\L	.	4.gg\	.	.
8B\	.	.	.	.
8d\J	.	.	.	.
*Xrep	*	*	*	*
8c\L	.	8dd\L	.	.
8B\	.	8ee\	.	.
8A\J	.	8ff#\J	.	.
=5	=5	=5	=5	=5
8G\L	5	4.gg\	.	.
8B\	.	.	.	.
8d\J	.	.	.	.
8E\L	5	4.bb\	.	.
8G\	.	.	.	.
8B\J	.	.	.	.
8C#X\L	5	8aa\L	.	.
8E\	.	8bb\	.	.
8A\J	.	8aa\J	.	.
=6	=6	=6	=6	=6
!	!	!LO:TX:a:t=problem2\right&colon;global	!	!
*	*	*2\right	*	*
8D\L	.	2.aa\	.	.
8F#\	.	.	.	.
8A\J	.	.	.	.
*rep	*	*rep	*	*
8D\L	.	.	.	.
8F#\	.	.	.	.
8A\J	.	.	.	.
*Xrep	*	*	*	*
8F#\L	4	4dd\	1	.
8A\	.	.	.	.
8d\J	.	8dd\	.	.
=7	=7	=7	=7	=7
8G\L	4	[4.bb\	5	.
8B\	.	.	.	.
8d\J	.	.	.	.
8G\L	5	8bb\L]	.	.
8B\	.	8bb\	.	.
8e\J	.	8aa\J	.	.
8A\L	.	8gg\L	.	.
8c#X\	.	8ff#\	.	.
8g\J	.	8ee\J	.	.
*clefG2	*	*	*	*
=8	=8	=8	=8	=8
8d/L	.	8dd\L	2	.
8f#/	.	8ff#\	.	.
8a/J	.	8ee\J	.	.
*rep	*	*	*	*
8d/L	.	4.dd\	.	.
8f#/	.	.	.	.
8a/J	.	.	.	.
*Xrep	*	*	*	*
!!LO:LB:g=original
8d/L	.	8ccc\L	.	.
8f#/	.	8bb-X\	.	.
8a/J	.	8aa\J	.	.
=9	=9	=9	=9	=9
8d/L	5	4.gg\	.	.
8g/	3	.	.	.
8b-X/J	2	.	.	.
8d/L	5	4.aa\	.	.
8a/	2	.	.	.
8cc/J	1	.	.	.
8d/L	5	8bb-X\L	.	.
8g/	3	8aa\	.	.
8b-/J	2	8gg\J	.	.
=10	=10	=10	=10	=10
8d/L	.	4.aa\	.	.
8f#/	.	.	.	.
8a/J	.	.	.	.
*rep	*	*	*	*
8d/L	.	4.aa\	.	.
8f#/	.	.	.	.
8a/J	.	.	.	.
*Xrep	*	*	*	*
*rep	*	*	*	*
8d/L	.	8ccc\L	.	.
8f#/	.	8bb-X\	.	.
8a/J	.	8aa\J	.	.
*Xrep	*	*	*	*
=11	=11	=11	=11	=11
8d/L	.	4.gg\	.	.
8g/	.	.	.	.
8b-X/J	.	.	.	.
8d/L	.	4.aa\	.	.
8a/	.	.	.	.
8cc/J	.	.	.	.
8d/L	.	8bb-X\L	.	.
8g/	.	8aa\	.	.
8b-/J	.	8gg\J	.	.
*clefF3	*	*	*	*
!LO:CL:ed	!	!	!	!
*clefF4	*	*	*	*
=12	=12	=12	=12	=12
8D\L	.	(4.ddd\	.	f
8F#\	.	.	.	.
8A\J	.	.	.	.
*clefG2	*	*	*	*
8d/L	.	8ddd\L)	.	.
8f#/	.	8aa\	.	p
8a/J	.	8ccc\J	.	.
8d/L	.	8bb-X\L	.	.
8g/	.	8aa\	.	.
8b/J	.	8gg\J	.	.
=13	=13	=13	=13	=13
*clefF3	*	*	*	*
!LO:CL:ed	!	!	!	!
*clefF4	*	*	*	*
8D\L	.	(4.ddd\	.	f
8F#\	.	.	.	.
8A\J	.	.	.	.
*clefG2	*	*	*	*
8d/L	.	8ddd\L)	.	.
8f#/	.	8aa\	.	p
8a/J	.	8ccc\J	.	.
8d/L	.	8bb-X\L	.	.
8g/	.	8aa\	.	.
8b/J	.	8gg\J	.	.
.	.	.	.	f
=	=	=	=	=
*2\right	*2\right	*2\right	*2\right	*
!	!	!LO:TX:b:i:t=Fermata\nZatrzymanie	!	!
2b.:\ 2.dd: 2.gg: 2.bb:;<	.	2.ddd;\	.	.
4ryy	.	4ryy	.	.
=-	=-	=	=	=
4r	.	8d/L	1	p
.	.	8e/	2	.
8r	.	8f#/J	3	.
*clefF3	*	*	*	*
!LO:CL:ed	!	!	!	!
*clefF4	*	*	*	*
=14	=14	=14	=14	=14
8G\L	.	4.g/	.	.
8B\	.	.	.	.
8d\J	.	.	.	.
8F#\L	.	4.a/	.	.
8c\	.	.	.	.
8d\J	.	.	.	.
8G\L	.	8b\L	.	.
8B\	.	8g\	.	.
8d\J	.	8dd\J	.	.
!!LO:LB:g=original
=15	=15	=15	=15	=15
8D\L	5	2.a/	.	.
8F#\	3	.	.	.
8A\J	1	.	.	.
8C\L	5	.	.	.
8F#\	2	.	.	.
8A\J	1	.	.	.
8BB\L	5	8dd\L	2	.
8D\	3	8gg\	5	.
8G\J	1	8ff#\J	4	.
=16	=16	=16	=16	=16
8C\L	.	[4.ff#\	.	.
8E\	.	.	.	.
8G\J	.	.	.	.
8C\L	.	8ff#\L]	.	.
8E\	.	8ee\	.	.
8A\J	.	8dd\J	.	.
8D\L	5	8cc\L	.	.
8F#\	.	8b\	3	.
8c\J	.	8a\J	2	.
=17	=17	=17	=17	=17
8G\L	.	8b\L	1	.
8B\	.	8cc\	2	.
8d\J	.	8dd\J	3	.
*rep	*	*	*	*
8G\L	.	4.dd\	3	.
8B\	.	.	.	.
8d\J	.	.	.	.
*Xrep	*	*	*	*
8BB\L	.	8dd\L	2	.
*	*	*8va	*	*
8D\	.	8ggg\	.	.
8G\J	.	8fff#\J	.	.
=18	=18	=18	=18	=18
8C\L	.	[4.fff#\	.	.
8E\	.	.	.	.
8G\J	.	.	.	.
8C\L	.	8fff#\L]	.	.
8E\	.	8eee\	.	.
8A\J	.	8ddd\J	.	.
8D\L	.	8ccc\L	.	.
8F#\	3	8bb\	.	.
8c\J	2	8aa\J	.	.
=19	=19	=19	=19	=19
*	*	*	*below	*
8G\L	.	16gg/LL	1	.
.	.	16ff#/	2	.
8B\	.	16gg/	1	.
.	.	16aa/	2	.
8d\J	.	16bb/	3	.
.	.	16ccc/JJ	1	.
*rep	*	*	*above	*
8G\L	.	16ddd\LL	2	.
.	.	16eee\	.	.
8B\	.	16fff#\	.	.
.	.	16ggg\	.	.
8d\J	.	16ddd\	.	.
.	.	16bb\JJ	.	.
*Xrep	*	*	*below	*
8G\L	.	16gg#X/LL	2	.
.	.	16aa/	3	.
8c\	.	16bb/	4	.
.	.	16ccc/	5	.
8d\J	.	16ff#/	2	.
.	.	16aa/JJ	4	.
=20	=20	=20	=20	=20
8G\L	.	16gg/LL	3	.
.	.	16ff#/	2	.
8B\	.	16gg/	3	.
.	.	16aa/	4	.
8d\J	.	16bb/	5	.
.	.	16ccc/JJ	4	.
*rep	*	*	*above	*
8G\L	.	16ddd\LL	2	.
.	.	16eee\	.	.
8B\	.	16fff#\	.	.
.	.	16ggg\	.	.
8d\J	.	16ddd\	.	.
.	.	16bb\JJ	.	.
*Xrep	*	*	*below	*
8G\L	.	16gg#X/LL	.	.
.	.	16ff#/	.	.
8c\	.	16gg#/	.	.
.	.	16aa/	.	.
!	!	!LO:TX:t=P:problem=16ff# 32bb\L	!	!
8d\J	.	32ff# 32bb/L	.	.
.	.	32aa/J	.	.
.	.	16gg#/JJ	.	.
=21	=21	=21	=21	=21
8G\L	4	16gg/LL	3	.
.	.	16ff#/	2	.
8B\	.	16gg/	3	.
.	.	16aa/	4	.
8d\J	.	16bb/	5	.
.	.	16gg/JJ	3	.
*	*	*X8va	*	*
!!LO:PB:g=original
!	!	!LO:TX:a:t=loco	!	!
*	*	*	*above	*
8D\L	5	16dd\LL	2	.
.	.	16gg\	5	.
8G\	2	16ff#\	4	.
.	.	16ee\	3	.
8B\J	1	16dd\	2	.
.	.	16cc\JJ	1	.
8BB\L	5	16b\LL	2	.
.	.	16ee\	5	.
8D\	3	16dd\	4	.
.	.	16b\ 16cc	3	.
8G\J	1	16b\	2	.
.	.	16a\JJ	1	.
=22	=22	=22	=22	=22
!LO:SIC:s=4.GG	!	!	!	!
!LO:N:vis=4	!	!	!	!
4.GG/	5	4.g/	2	.
.	.	.	.	.
4.GG\ 4.BB 4.D 4.G	.	4.g\ 4.b 4.dd 4.gg	.	ff
4r	.	4r	.	.
8r	.	8r	.	.
==	==	==	==	==
*-	*-	*-	*-	*-
!!!RDF**kern: < = below
!!!system-decoration: {(s1,s2)}
!!!ENC: Anastazja Marusiak
!!!END: 2020-06-17
!!!ENC: Urszula Świątek
!!!END: 2022-01-12
!!!rism-genre: Ariettes, Keyboard music
!!!rism-key: G
!!!rism-title: Joconde ou Les coureurs d'adventures (Excerpts. Arr)
